!!!COM: Gioseffo Zarlino
!!!OPR: Le istitutioni harmoniche
!!!OTL: Type Six: Canon at the fifth below after a minim, cantus firmus above.
!!!PPR: Francesco Senese
!!!PDT: 1573
!!!PPP: Venice
!!!ONB: Reprint ed., New York: Broude Bros., 1965. ch. 63, p.310.
!!!ONB: Transcribed from Gioseffo Zarlino, Le Istitutioni Harmoniche, 1558,
!!!ONB: translated as "The Art of Counterpoint" by Guy Marco and
!!!ONB: Claude Palisca; New York: W.W. Norton, 1968, p. 218.
**kern	**kern	**kern
*conseq	*guida	*CF
*k[b-]	*k[]	*k[]
*M4/2	*M4/2	*M4/2
=1-	=1-	=1-
2r	4e	1A
.	4d	.
4A	4c	.
4G	4B	.
4F	2A	1A
4E	.	.
2D	2f	.
=2	=2	=2
2B-	2d	1G
2G	4g	.
.	4f	.
4c	4e	1A
4B-	4d	.
4A	[2c	.
4G	.	.
=3	=3	=3
2.F	4c]	1c
.	4B	.
.	2A	.
4E	.	.
2D	2.d	1B
[2G	.	.
.	8c	.
.	8B	.
=4	=4	=4
4G]	2c	1A
8F	.	.
8E	.	.
2F	2d	.
2G	2B	1G
2E	[2c	.
=5	=5	=5
1F	2c]	1A
.	2c	.
2F	2.c	1A
[2F	.	.
.	8B	.
.	8A	.
=6	=6	=6
4F]	2B	1G
8E	.	.
8D	.	.
2E	2c	.
2F	2.A	1F
[2D	.	.
.	4G	.
=7	=7	=7
4D]	4F	1D
4C	4E	.
4BB-	2D	.
4AA	.	.
2GG	1G	1E
[2C	.	.
=8	=8	=8
2C]	2G	1E
2C	2.G	.
2.C	.	1G
.	4F	.
.	2E	.
4BB-	.	.
=9	=9	=9
2AA	1c	1A
1F	.	.
.	2A	1D
2D	2d	.
=10	=10	=10
2G	2B	1E
2E	1B	.
1E	.	1G
.	2c	.
=11	=11	=11
2D	2A	1F
2D	1d	.
1G	.	1E
.	[2c	.
=12	=12	=12
1F	2c]	1D
.	2B	.
2E	2G	1E
2C	2E	.
=13	=13	=13
2AA	2.A	1F
2.D	.	.
.	8G	.
.	8F	.
.	2G	1E
8C	.	.
8BBn	.	.
2C	2A	.
=14	=14	=14
0D	0A	0D
==	==	==
*-	*-	*-
!!!CDT: 1517/3/22-1590/2/14
!!!CNT: Italia
!!!ODT: <1573//
!!!YEP: David Huron and Denis Collins
!!!YEN: Canada
!!!AIN: vox; ?
!!!AST: polyphony
!!!RDT: 1995 July 3
!!!YED: 1995 August 31
!!!AFR: cantus firmus canon
!!!AMT: simple quadruple
!!!EEV: 1.0
